school/img/country/SK.svg

<svg width="13" height="12" viewBox="0 0 13 12" fill="none" xmlns="http://www.w3.org/2000/svg">
<rect x="0.25" y="0.25" width="12.5" height="11.5" rx="1.75" fill="white" stroke="#F5F5F5" stroke-width="0.5"/>
<mask id="mask0" mask-type="alpha" maskUnits="userSpaceOnUse" x="0" y="0" width="13" height="12">
<rect x="0.25" y="0.25" width="12.5" height="11.5" rx="1.75" fill="white" stroke="white" stroke-width="0.5"/>
</mask>
<g mask="url(#mask0)">
<path fill-rule="evenodd" clip-rule="evenodd" d="M0 8H13V4H0V8Z" fill="#0C47B7"/>
<path fill-rule="evenodd" clip-rule="evenodd" d="M0 12H13V8H0V12Z" fill="#E53B35"/>
<path d="M5.3605 1.73333H3.92517C2.84377 1.73333 1.95822 2.59291 1.92605 3.67384L1.82573 7.04468C1.81039 7.56014 1.99475 8.06161 2.34031 8.44439L2.66345 8.80233C3.72238 9.97529 5.56328 9.9753 6.62221 8.80233L6.94535 8.44439C7.29092 8.06161 7.47527 7.56014 7.45993 7.04468L7.35961 3.67384C7.32744 2.59291 6.4419 1.73333 5.3605 1.73333Z" fill="#F73744" stroke="white" stroke-width="1.33333"/>
<mask id="mask1" mask-type="alpha" maskUnits="userSpaceOnUse" x="1" y="1" width="8" height="10">
<path d="M5.3605 1.73333H3.92517C2.84377 1.73333 1.95822 2.59291 1.92605 3.67384L1.82573 7.04468C1.81039 7.56014 1.99475 8.06161 2.34031 8.44439L2.66345 8.80233C3.72238 9.97529 5.56328 9.9753 6.62221 8.80233L6.94535 8.44439C7.29092 8.06161 7.47527 7.56014 7.45993 7.04468L7.35961 3.67384C7.32744 2.59291 6.4419 1.73333 5.3605 1.73333Z" fill="white" stroke="white" stroke-width="1.33333"/>
</mask>
<g mask="url(#mask1)">
<path fill-rule="evenodd" clip-rule="evenodd" d="M4.33336 6.73333C4.33336 6.54924 4.18412 6.4 4.00002 6.4H3.73812C3.55402 6.4 3.40479 6.25076 3.40479 6.06666V5.93333C3.40479 5.74924 3.55402 5.6 3.73812 5.6H4.00002C4.18412 5.6 4.33336 5.45076 4.33336 5.26666V5.10952C4.33336 4.93858 4.19478 4.8 4.02383 4.8V4.8C3.85289 4.8 3.71431 4.66142 3.71431 4.49047V4.30952C3.71431 4.13858 3.85289 4 4.02383 4V4C4.19478 4 4.33336 3.86142 4.33336 3.69047V3.50952C4.33336 3.33858 4.47193 3.2 4.64288 3.2V3.2C4.81383 3.2 4.9524 3.33858 4.9524 3.50952V3.69047C4.9524 3.86142 5.09098 4 5.26193 4V4C5.43287 4 5.57145 4.13858 5.57145 4.30952V4.49047C5.57145 4.66142 5.43287 4.8 5.26193 4.8V4.8C5.09098 4.8 4.9524 4.93858 4.9524 5.10952V5.26666C4.9524 5.45076 5.10164 5.6 5.28574 5.6H5.54764C5.73174 5.6 5.88098 5.74924 5.88098 5.93333V6.06666C5.88098 6.25076 5.73174 6.4 5.54764 6.4H5.28574C5.10164 6.4 4.9524 6.54924 4.9524 6.73333V7.69047C4.9524 7.86142 4.81383 8 4.64288 8V8C4.47193 8 4.33336 7.86142 4.33336 7.69047V6.73333Z" fill="white"/>
<path fill-rule="evenodd" clip-rule="evenodd" d="M4.08403 8.05527C3.3314 8.20851 2.78564 8.66307 2.78564 9.20001C2.78564 9.86275 3.61712 10.4 4.64279 10.4C5.66846 10.4 6.49993 9.86275 6.49993 9.20001C6.49993 8.66309 5.9542 8.20852 5.20159 8.05528C5.10195 7.78601 4.88919 7.60001 4.64281 7.60001C4.39643 7.60001 4.18368 7.786 4.08403 8.05527Z" fill="#1251A1"/>
</g>
</g>
</svg>

<svg width="13" height="12" fill="none" xmlns="http://www.w3.org/2000/svg"><rect x=".25" y=".25" width="12.5" height="11.5" rx="1.75" fill="#fff" stroke="#F5F5F5" stroke-width=".5"/><mask id="a" maskUnits="userSpaceOnUse" x="0" y="0" width="13" height="12"><rect x=".25" y=".25" width="12.5" height="11.5" rx="1.75" fill="#fff" stroke="#fff" stroke-width=".5"/></mask><g mask="url(#a)"><path fill-rule="evenodd" clip-rule="evenodd" d="M0 8h13V4H0v4z" fill="#0C47B7"/><path fill-rule="evenodd" clip-rule="evenodd" d="M0 12h13V8H0v4z" fill="#E53B35"/><path d="M5.36 1.733H3.925a2 2 0 00-1.999 1.94l-.1 3.372a2 2 0 00.514 1.4l.323.357a2.667 2.667 0 003.96 0l.322-.358a2 2 0 00.515-1.4l-.1-3.37a2 2 0 00-2-1.94z" fill="#F73744" stroke="#fff" stroke-width="1.333"/><mask id="b" maskUnits="userSpaceOnUse" x="1" y="1" width="8" height="10"><path d="M5.36 1.733H3.925a2 2 0 00-1.999 1.94l-.1 3.372a2 2 0 00.514 1.4l.323.357a2.667 2.667 0 003.96 0l.322-.358a2 2 0 00.515-1.4l-.1-3.37a2 2 0 00-2-1.94z" fill="#fff" stroke="#fff" stroke-width="1.333"/></mask><g mask="url(#b)" fill-rule="evenodd" clip-rule="evenodd"><path d="M4.333 6.733A.333.333 0 004 6.4h-.262a.333.333 0 01-.333-.333v-.134c0-.184.149-.333.333-.333H4c.184 0 .333-.15.333-.333V5.11a.31.31 0 00-.31-.31.31.31 0 01-.309-.31v-.18a.31.31 0 01.31-.31.31.31 0 00.31-.31v-.18a.31.31 0 11.619 0v.18c0 .171.138.31.309.31.17 0 .31.139.31.31v.18a.31.31 0 01-.31.31.31.31 0 00-.31.31v.157c0 .184.15.333.334.333h.262c.184 0 .333.15.333.333v.134c0 .184-.15.333-.333.333h-.262a.333.333 0 00-.334.333v.957a.31.31 0 11-.619 0v-.957z" fill="#fff"/><path d="M4.084 8.055c-.753.154-1.298.608-1.298 1.145 0 .663.831 1.2 1.857 1.2 1.025 0 1.857-.537 1.857-1.2 0-.537-.546-.991-1.298-1.145-.1-.269-.313-.455-.56-.455-.246 0-.458.186-.558.455z" fill="#1251A1"/></g></g></svg>
